findly-builder/apps/searchassist/src/assets/icons/resultTemplate/type-5.svg

<svg width="127" height="84" viewBox="0 0 127 84" fill="none" xmlns="http://www.w3.org/2000/svg">
<g filter="url(#filter0_d)">
<rect x="6" y="6.02319" width="115" height="71.6744" rx="4" fill="white"/>
<rect x="6.25" y="6.27319" width="114.5" height="71.1744" rx="3.75" stroke="#E7F1FF" stroke-width="0.5"/>
</g>
<path fill-rule="evenodd" clip-rule="evenodd" d="M42.5312 17.6746C39.3889 17.6746 36.8125 20.3777 36.8125 23.6746V59.6746C36.8125 62.9714 39.3889 65.6746 42.5312 65.6746H84.4688C87.6111 65.6746 90.1875 62.9714 90.1875 59.6746V23.6746C90.1875 20.3777 87.6111 17.6746 84.4688 17.6746H42.5312ZM42.5312 21.6746H84.4688C85.541 21.6746 86.375 22.5496 86.375 23.6746V52.7371L73.3996 38.3647C73.1968 38.14 72.8424 38.1457 72.6468 38.3767L65.5701 46.7371L54.4712 34.458C54.2683 34.2335 53.9141 34.2393 53.7186 34.4702L40.625 49.9402V23.6746C40.625 22.5496 41.459 21.6746 42.5312 21.6746ZM74.9375 25.6746C72.8376 25.6746 71.125 27.4714 71.125 29.6746C71.125 31.8777 72.8376 33.6746 74.9375 33.6746C77.0374 33.6746 78.75 31.8777 78.75 29.6746C78.75 27.4714 77.0374 25.6746 74.9375 25.6746ZM54.1772 39.9402L73.8206 61.6746H42.5312C41.459 61.6746 40.625 60.7996 40.625 59.6746V55.9714L54.1772 39.9402ZM73.0908 43.8621L86.375 58.5496V59.6746C86.375 60.7996 85.541 61.6746 84.4688 61.6746H79.0627L68.2061 49.6433L73.0908 43.8621Z" fill="#BDC1C6"/>
<defs>
<filter id="filter0_d" x="0" y="0.0231934" width="127" height="83.6744" filterUnits="userSpaceOnUse" color-interpolation-filters="sRGB">
<feFlood flood-opacity="0" result="BackgroundImageFix"/>
<feColorMatrix in="SourceAlpha" type="matrix" values="0 0 0 0 0 0 0 0 0 0 0 0 0 0 0 0 0 0 127 0" result="hardAlpha"/>
<feOffset/>
<feGaussianBlur stdDeviation="3"/>
<feColorMatrix type="matrix" values="0 0 0 0 0 0 0 0 0 0 0 0 0 0 0 0 0 0 0.1 0"/>
<feBlend mode="normal" in2="BackgroundImageFix" result="effect1_dropShadow"/>
<feBlend mode="normal" in="SourceGraphic" in2="effect1_dropShadow" result="shape"/>
</filter>
</defs>
</svg>

<svg width="127" height="84" fill="none" xmlns="http://www.w3.org/2000/svg"><g filter="url(#a)"><rect x="6" y="6.023" width="115" height="71.674" rx="4" fill="#fff"/><rect x="6.25" y="6.273" width="114.5" height="71.174" rx="3.75" stroke="#E7F1FF" stroke-width=".5"/></g><path fill-rule="evenodd" clip-rule="evenodd" d="M42.531 17.675c-3.142 0-5.718 2.703-5.718 6v36c0 3.296 2.576 6 5.718 6H84.47c3.142 0 5.719-2.704 5.719-6v-36c0-3.297-2.577-6-5.72-6H42.532Zm0 4H84.47c1.072 0 1.906.875 1.906 2v29.062L73.4 38.365a.5.5 0 0 0-.753.012l-7.077 8.36-11.099-12.279a.5.5 0 0 0-.752.012L40.625 49.94V23.675c0-1.125.834-2 1.906-2Zm32.407 4c-2.1 0-3.813 1.796-3.813 4 0 2.203 1.713 4 3.813 4s3.812-1.797 3.812-4c0-2.204-1.713-4-3.813-4ZM54.177 39.94 73.82 61.675H42.53c-1.072 0-1.906-.875-1.906-2V55.97l13.552-16.03Zm18.913 3.922L86.375 58.55v1.125c0 1.125-.834 2-1.906 2h-5.406L68.206 49.643l4.885-5.78Z" fill="#BDC1C6"/><defs><filter id="a" x="0" y=".023" width="127" height="83.674" filterUnits="userSpaceOnUse" color-interpolation-filters="sRGB"><feFlood flood-opacity="0" result="BackgroundImageFix"/><feColorMatrix in="SourceAlpha" values="0 0 0 0 0 0 0 0 0 0 0 0 0 0 0 0 0 0 127 0" result="hardAlpha"/><feOffset/><feGaussianBlur stdDeviation="3"/><feColorMatrix values="0 0 0 0 0 0 0 0 0 0 0 0 0 0 0 0 0 0 0.1 0"/><feBlend in2="BackgroundImageFix" result="effect1_dropShadow"/><feBlend in="SourceGraphic" in2="effect1_dropShadow" result="shape"/></filter></defs></svg>
